frontend/public/svg/logos/paypal.svg

<svg width="138" height="162" viewBox="0 0 138 162" fill="none" xmlns="http://www.w3.org/2000/svg">
<g clip-path="url(#clip0)">
<path d="M122.61 44.4148C121.419 43.7651 120.22 43.1284 118.965 42.4603L117.485 41.6729C117.485 40.3451 117.508 39.0774 117.528 37.854C117.573 35.0876 117.615 32.472 117.445 29.8959C116.509 15.719 105.796 0.718049 87.771 0.718049H87.5649C85.5775 0.731175 83.5612 0.701404 81.6073 0.673181C78.4799 0.627894 75.2461 0.581243 72.0609 0.702665C58.6567 1.21395 43.0687 1.83557 27.6926 2.72359C21.9352 3.0557 21.3157 3.98133 20.0732 9.59368C19.5698 11.8659 19.2108 14.1983 18.8636 16.4541C18.7047 17.4911 18.5446 18.529 18.3713 19.5627L14.0973 45.0285C9.69585 71.2481 5.30257 97.4694 0.917358 123.693C0.489426 126.252 0.727646 128 1.66555 129.182C2.57655 130.332 4.13208 130.941 6.55856 131.099C7.78066 131.148 9.00473 131.107 10.2209 130.977C11.023 130.912 11.8526 130.846 12.656 130.833C15.4467 130.798 18.2349 130.804 21.1884 130.812C22.211 130.812 23.2525 130.817 24.3184 130.818C24.283 131.25 24.2528 131.671 24.2219 132.074C24.1556 133.257 24.0299 134.436 23.8452 135.607C23.4691 137.729 23.0471 139.884 22.6382 141.968C22.1564 144.429 21.6583 146.974 21.2311 149.491C20.7244 152.479 20.8838 154.196 21.7803 155.418C22.6421 156.594 24.1583 157.256 26.8506 157.625C36.7901 158.997 45.973 160.054 54.9228 160.849C55.6874 160.915 56.3923 160.954 57.0441 160.954C61.9193 160.954 63.7919 158.931 64.8998 153.16C65.8843 148.04 66.545 142.786 67.1856 137.702C67.3484 136.411 67.5131 135.12 67.6785 133.83C68.3775 128.461 69.0384 122.983 69.6784 117.684C69.9409 115.509 70.2054 113.329 70.4712 111.144L75.1726 110.785C78.747 110.512 82.0825 110.256 85.4206 110.018C98.7909 109.063 108.665 106.587 117.435 101.991C124.299 98.448 129.829 92.7727 133.192 85.8188C136.555 78.8642 137.571 71.0059 136.086 63.4249C134.422 54.7875 129.887 48.3903 122.61 44.4148ZM12.5759 106.592C13.097 104.219 13.6365 101.765 14.0054 99.3275C14.7779 94.2284 15.7427 89.065 16.6753 84.0716C17.0862 81.8722 17.4971 79.6741 17.8935 77.4734L18.9719 71.4732C19.8807 66.405 20.7983 61.3392 21.7246 56.2744C22.5944 51.5545 23.4791 46.8376 24.3788 42.1238C24.8632 39.5636 25.3462 37.0037 25.828 34.4445C26.7816 29.3677 27.7314 24.2904 28.729 18.9603L29.9504 12.4315C30.6068 12.3705 31.2257 12.3054 31.8203 12.2437C33.3168 12.0868 34.6091 11.9512 35.91 11.9341C50.1775 11.7477 64.6832 11.5966 78.7122 11.4509L84.4223 11.3919C85.271 11.3859 86.1288 11.4234 87.0746 11.472C93.9609 11.8264 99.6382 14.747 103.061 19.6951C106.563 24.7575 107.334 31.3471 105.251 38.3049C104.433 38.2157 103.61 38.1122 102.782 38.0079C100.51 37.6756 98.2218 37.4781 95.9266 37.4169C78.2101 37.2928 64.6989 37.2968 52.1222 37.43C45.4374 37.5002 44.0177 38.5938 41.9982 45.2327C36.6976 62.6545 32.4268 82.1013 28.5603 106.434C28.1343 109.11 27.6585 111.799 27.1538 114.645C26.9365 115.875 26.7127 117.139 26.4837 118.452C25.7661 118.554 25.0526 118.657 24.3433 118.761C22.3192 119.055 20.4053 119.333 18.4488 119.57C16.6478 119.788 14.8796 119.954 12.8325 120.147C12.1217 120.212 11.3885 120.283 10.6187 120.357C10.5977 115.594 11.6025 111.02 12.5759 106.592ZM103.387 48.1776C102.31 55.0035 98.1175 59.3845 90.9168 61.2085C84.8726 62.7025 78.7352 63.7872 72.5446 64.4549C66.2621 65.1769 59.9431 65.6619 53.259 66.1785C50.585 66.3853 47.8514 66.5966 45.0364 66.829L49.4666 45.9717C62.2245 44.0086 94.7794 45.3586 103.387 48.1776ZM42.5062 79.5508C46.1285 79.2403 49.6865 78.9561 53.1973 78.6752C62.0913 77.965 70.4922 77.293 78.9596 76.2973C84.7761 75.5222 90.504 74.1826 96.0605 72.2982C104.567 69.5672 110.376 63.9816 113.328 55.6928C113.67 54.7312 114.065 53.8025 114.521 52.7268C114.671 52.3723 114.827 52.0049 114.986 51.6262C120.483 53.3786 123.866 56.8427 125.317 62.2003C128.586 74.2541 123.152 86.1903 112.097 91.2283C106.414 93.7283 100.436 95.4965 94.3068 96.4915C89.1473 97.2889 83.9478 97.7996 78.7312 98.0201C76.795 98.1376 74.8588 98.2551 72.9299 98.4008C62.8106 99.1667 62.3525 99.571 60.6651 109.191C59.5874 115.338 58.5648 121.596 57.5803 127.651C56.8872 131.899 56.1871 136.145 55.48 140.389C55.1328 142.444 54.699 144.505 54.2389 146.686C54.0498 147.583 53.8556 148.504 53.6593 149.461C46.8492 149.887 40.2123 149.325 33.1973 148.731L32.6723 148.687L42.5062 79.5508Z" fill="black"/>
</g>
<defs>
<clipPath id="clip0">
<rect width="136.518" height="160.803" fill="white" transform="translate(0.626953 0.396484)"/>
</clipPath>
</defs>
</svg>

<svg xmlns="http://www.w3.org/2000/svg" width="138" height="162" fill="none" viewBox="0 0 138 162"><g clip-path="url(#a)"><path fill="#000" d="M122.61 44.415c-1.191-.65-2.39-1.287-3.645-1.955l-1.48-.787c0-1.328.023-2.596.043-3.819.045-2.766.087-5.382-.083-7.958C116.509 15.719 105.796.718 87.771.718h-.206C85.578.731 83.56.701 81.607.673c-3.127-.045-6.36-.092-9.546.03-13.404.511-28.992 1.133-44.368 2.02-5.758.333-6.377 1.258-7.62 6.87-.503 2.273-.862 4.605-1.21 6.861a224 224 0 0 1-.492 3.109l-4.274 25.466Q7.496 84.358.917 123.693c-.428 2.559-.19 4.307.749 5.489.91 1.15 2.466 1.759 4.893 1.917a25 25 0 0 0 3.662-.122 38 38 0 0 1 2.435-.144c2.79-.035 5.579-.029 8.532-.021 1.023 0 2.065.005 3.13.006q-.051.65-.096 1.256a35 35 0 0 1-.377 3.533 356 356 0 0 1-1.207 6.361c-.482 2.461-.98 5.006-1.407 7.523-.507 2.988-.347 4.705.55 5.927.861 1.176 2.377 1.838 5.07 2.207 9.94 1.372 19.122 2.429 28.072 3.224.764.066 1.47.105 2.121.105 4.875 0 6.748-2.023 7.856-7.794.984-5.12 1.645-10.374 2.286-15.458q.244-1.937.492-3.872c.7-5.369 1.36-10.847 2-16.146q.394-3.263.793-6.54l4.702-.359c3.574-.273 6.91-.529 10.248-.767 13.37-.955 23.244-3.431 32.014-8.027a35.684 35.684 0 0 0 18.651-38.566c-1.664-8.637-6.199-15.035-13.476-19.01M12.576 106.592c.521-2.373 1.06-4.827 1.43-7.264.772-5.1 1.737-10.263 2.67-15.256.41-2.2.821-4.398 1.218-6.599l1.078-6q1.363-7.602 2.753-15.199 1.305-7.08 2.654-14.15l1.449-7.68c.954-5.076 1.903-10.154 2.901-15.484l1.221-6.529c.657-.06 1.276-.126 1.87-.187 1.497-.157 2.79-.293 4.09-.31 14.268-.186 28.773-.337 42.802-.483l5.71-.06a45 45 0 0 1 2.653.081c6.886.354 12.563 3.275 15.986 8.223 3.502 5.063 4.273 11.652 2.19 18.61-.818-.09-1.641-.193-2.469-.297a58 58 0 0 0-6.855-.591c-17.717-.124-31.228-.12-43.805.013-6.685.07-8.104 1.164-10.124 7.803-5.3 17.422-9.571 36.868-13.438 61.201a473 473 0 0 1-1.406 8.211c-.218 1.23-.441 2.494-.67 3.807q-1.077.153-2.14.309c-2.025.294-3.939.572-5.895.809-1.801.218-3.57.384-5.617.577-.71.065-1.444.136-2.213.21-.021-4.763.983-9.337 1.957-13.765m90.811-58.414c-1.077 6.826-5.27 11.207-12.47 13.03a138 138 0 0 1-18.372 3.247c-6.283.722-12.602 1.207-19.286 1.724-2.674.206-5.408.418-8.223.65l4.43-20.857c12.758-1.963 45.313-.613 53.921 2.206M42.507 79.55c3.622-.31 7.18-.595 10.69-.876 8.894-.71 17.295-1.382 25.763-2.378a90.5 90.5 0 0 0 17.1-3.999c8.507-2.73 14.316-8.316 17.268-16.605.342-.962.737-1.89 1.193-2.966l.465-1.1c5.497 1.752 8.88 5.216 10.331 10.573 3.269 12.054-2.165 23.99-13.22 29.028a73.4 73.4 0 0 1-17.79 5.264A141 141 0 0 1 78.73 98.02c-1.936.118-3.872.235-5.801.38-10.12.767-10.578 1.171-12.265 10.791-1.078 6.147-2.1 12.405-3.085 18.46q-1.04 6.372-2.1 12.738c-.347 2.055-.781 4.116-1.241 6.297-.19.897-.383 1.818-.58 2.775-6.81.426-13.447-.136-20.462-.73l-.525-.044z"/></g><defs><clipPath id="a"><path fill="#fff" d="M.627.396h136.518V161.2H.627z"/></clipPath></defs></svg>
